!!!!SEGMENT: Bau2003-Quam_pulchra_es.krn
!!!id: Bau2003
!!!AGN: Motet
!!!SCT: Ory
!!!voices: 4
!!!COM: Noel Bauldeweyn
!!!OTL: Quam pulchra es
**kern	**text	**kern	**text	**kern	**text	**kern	**text
*part4	*part4	*part3	*part3	*part2	*part2	*part1	*part1
*staff4	*staff4	*staff3	*staff3	*staff2	*staff2	*staff1	*staff1
*I"Bassus	*	*I"Tenor	*	*I"Altus	*	*I"Superius	*
*I'B	*	*I'T	*	*I'A	*	*I'S	*
*clefF4	*	*clefGv2	*	*clefG2	*	*clefG2	*
*k[]	*	*k[]	*	*k[]	*	*k[]	*
*C:	*	*C:	*	*C:	*	*C:	*
*M2/1	*	*M2/1	*	*M2/1	*	*M2/1	*
*met(C)	*	*met(C)	*	*met(C)	*	*met(C)	*
!!section: Prima pars: Quam pulchra es
!!!OMD: Prima pars: Quam pulchra es
=1	=1	=1	=1	=1	=1	=1	=1
0r	.	0r	.	1r	.	2.f	Quam
.	.	.	.	.	.	4g	.
.	.	.	.	2.f	Quam	2a	.
.	.	.	.	.	.	2b-X	.
.	.	.	.	4g	.	.	.
=2	=2	=2	=2	=2	=2	=2	=2
0r	.	0r	.	2a	.	2.a	pul-
.	.	.	.	2b-X	.	.	.
.	.	.	.	.	.	8gL	.
.	.	.	.	.	.	8fJ	.
.	.	.	.	1g	pul-	4e	.
.	.	.	.	.	.	4d	.
.	.	.	.	.	.	[2g	.
=3	=3	=3	=3	=3	=3	=3	=3
0r	.	0r	.	1a	.	4g]	.
.	.	.	.	.	.	4f	.
.	.	.	.	.	.	2.f	-chra
.	.	.	.	1g	-chra	.	.
.	.	.	.	.	.	8eL	.
.	.	.	.	.	.	8dJ	.
.	.	.	.	.	.	2e	.
=4	=4	=4	=4	=4	=4	=4	=4
1r	.	2.F	Quam	1f	es	0f	es
.	.	4G	.	.	.	.	.
2.FF	Quam	2A	.	1r	.	.	.
.	.	2B-X	.	.	.	.	.
4GG	.	.	.	.	.	.	.
=5	=5	=5	=5	=5	=5	=5	=5
2AA	.	2A	pul-	0r	.	0r	.
2BB-X	.	4G	.	.	.	.	.
.	.	4F	.	.	.	.	.
1GG	pul-	4E	.	.	.	.	.
.	.	4D	.	.	.	.	.
.	.	[2G	.	.	.	.	.
=6	=6	=6	=6	=6	=6	=6	=6
1AA	.	4G]	.	0r	.	0r	.
.	.	4F	.	.	.	.	.
.	.	2.F	-chra	.	.	.	.
1GG	-chra	.	.	.	.	.	.
.	.	8EL	.	.	.	.	.
.	.	8DJ	.	.	.	.	.
.	.	2E	.	.	.	.	.
=7	=7	=7	=7	=7	=7	=7	=7
0FF	es	1F	es	1cc	et	1r	.
.	.	1r	.	1a	quam	1f	et
=8	=8	=8	=8	=8	=8	=8	=8
1.BB-X	et	1F	et	0b-X	de-	2.d	quam
.	.	.	.	.	.	4e	.
.	.	2D	quam	.	.	2f	.
2GG	quam	2E	de-	.	.	[2g	de-
=9	=9	=9	=9	=9	=9	=9	=9
1D	de-	1F	-co-	2.a	-co-	4g]	.
.	.	.	.	.	.	4f	.
.	.	.	.	.	.	1f	-co-
.	.	.	.	4b-X	.	.	.
1C	-co-	1G	.	4cc	.	.	.
.	.	.	.	4dd	.	.	.
.	.	.	.	[2cc	.	2e	.
=10	=10	=10	=10	=10	=10	=10	=10
0FF	-ra,	0F	-ra,	4cc]	.	1f	-ra,
.	.	.	.	4b-X	.	.	.
.	.	.	.	1b-i	.	.	.
.	.	.	.	.	.	1f	et
.	.	.	.	2a	.	.	.
=11	=11	=11	=11	=11	=11	=11	=11
1.BB-X	et	2r	.	1b-X	-ra,	2.d	quam
.	.	2F	et	.	.	.	.
.	.	.	.	.	.	4e	.
.	.	2D	quam	2r	.	2f	.
2GG	quam	2E	de-	2b-i	et	[2g	de-
=12	=12	=12	=12	=12	=12	=12	=12
1D	de-	1F	-co-	2a	quam	4g]	.
.	.	.	.	.	.	4f	.
.	.	.	.	2b-X	de-	1f	-co-
1C	-co-	1G	.	1cc	-co-	.	.
.	.	.	.	.	.	2e	.
=13	=13	=13	=13	=13	=13	=13	=13
2FF	-ra,	0F	-ra,	1a	-ra,	0f	-ra,
2FF	cha-	.	.	.	.	.	.
2AA	-ris-	.	.	2r	.	.	.
2BB-X	-si-	.	.	2f	cha-	.	.
=14	=14	=14	=14	=14	=14	=14	=14
2C	-ma	0r	.	2a	-ris-	0r	.
2D	.	.	.	2b-X	-si-	.	.
2E	.	.	.	2cc	-ma,	.	.
2F	in	.	.	[2dd	in	.	.
=15	=15	=15	=15	=15	=15	=15	=15
2.G	de-	0r	.	4dd]	.	0r	.
.	.	.	.	4cc	.	.	.
.	.	.	.	4b-X	.	.	.
4F	.	.	.	4a	.	.	.
4E	.	.	.	2g	.	.	.
4D	.	.	.	.	.	.	.
2C	.	.	.	[2cc	de-	.	.
=16	=16	=16	=16	=16	=16	=16	=16
2.E	-li-	1r	.	2cc]	.	0r	.
.	.	.	.	4bni	.	.	.
4F	.	.	.	4a	.	.	.
1D	-ci-	1F	Sta-	2.b	-li-	.	.
.	.	.	.	4b	-ci-	.	.
=17	=17	=17	=17	=17	=17	=17	=17
0C	-is	2G	-tu-	[0cc	-is	0r	.
.	.	1A	.	.	.	.	.
.	.	4G	.	.	.	.	.
.	.	4F	.	.	.	.	.
=18	=18	=18	=18	=18	=18	=18	=18
1C	Sta-	2.E	.	0cc]	.	0r	.
.	.	4F	.	.	.	.	.
1C	-tu-	4G	.	.	.	.	.
.	.	4A	.	.	.	.	.
.	.	[2G	.	.	.	.	.
=19	=19	=19	=19	=19	=19	=19	=19
2BB-X	-ra	4G]	.	1r	.	1r	.
.	.	4F	-ra	.	.	.	.
2AA	.	1F	tu-	.	.	.	.
1GG	tu-	.	.	1g	as-	1b-X	as-
.	.	2E	.	.	.	.	.
=20	=20	=20	=20	=20	=20	=20	=20
1FF	-a,	1F	-a	2.cc	-si-	2.a	-si-
.	.	.	.	4cc	-mi-	4a	-mi-
1r	.	1r	.	2cc	-la-	2g	-la-
.	.	.	.	2a	-ta	2f	-ta
=21	=21	=21	=21	=21	=21	=21	=21
1r	.	0r	.	1b-X	est	1g	est
1GG	et	.	.	1g	pal-	1b-X	pal-
=22	=22	=22	=22	=22	=22	=22	=22
2.D	u-	2r	.	1f	-mae,	0a	-mae,
.	.	2A	et	.	.	.	.
4D	-be-	.	.	.	.	.	.
2D	-ra	2.A	u-	1r	.	.	.
2C	.	.	.	.	.	.	.
.	.	4A	-be-	.	.	.	.
=23	=23	=23	=23	=23	=23	=23	=23
1BB-X	tu-	2G	-ra	0r	.	0r	.
.	.	2F	.	.	.	.	.
2E-X	-a	2G	tu-	.	.	.	.
[2D	bo-	[2B-X	.	.	.	.	.
=24	=24	=24	=24	=24	=24	=24	=24
4D]	.	4B-]	.	1r	.	0r	.
4C	.	4A	-a	.	.	.	.
4AA	.	2A	bo-	.	.	.	.
4BB-X	.	.	.	.	.	.	.
4C	.	4G	.	2r	.	.	.
4D	.	4F	.	.	.	.	.
2BB-i	.	2G	.	2dd	et	.	.
=25	=25	=25	=25	=25	=25	=25	=25
1AA	-tris.	1A	-tris.	2.cc	u-	2r	.
.	.	.	.	.	.	2a	et
.	.	.	.	4cc	-be-	.	.
1r	.	1r	.	2dd	-ra	2.a	u-
.	.	.	.	2ff	.	.	.
.	.	.	.	.	.	4a	-be-
=26	=26	=26	=26	=26	=26	=26	=26
0r	.	0r	.	2ee	tu-	2g	-ra
.	.	.	.	2dd	.	2f	.
.	.	.	.	2cc	-a	2g	tu-
.	.	.	.	[2dd	bo-	[2b-X	.
=27	=27	=27	=27	=27	=27	=27	=27
0r	.	0r	.	4dd]	.	4b-]	.
.	.	.	.	4cc	.	4a	-a
.	.	.	.	4a	.	2a	bo-
.	.	.	.	4b-X	.	.	.
.	.	.	.	4cc	.	4g	.
.	.	.	.	4dd	.	4f	.
.	.	.	.	2b-i	.	2g	.
=28	=28	=28	=28	=28	=28	=28	=28
0FF	Ca-	0C	Ca-	1a	-tris.	1a	-tris.
.	.	.	.	1r	.	1r	.
=29	=29	=29	=29	=29	=29	=29	=29
1.BB-X	-put	1.D	-put	0b-X	Ca-	0f	Ca-
2AA	.	2C	.	.	.	.	.
=30	=30	=30	=30	=30	=30	=30	=30
0GG	tu-	1D	tu-	1b-X	-put	1.b-X	-put
.	.	1E	-um	1g	tu-	.	.
.	.	.	.	.	.	2b-i	tu-
=31	=31	=31	=31	=31	=31	=31	=31
1FF	-um	2.F	ut	2a	-um	1a	-um
.	.	.	.	2f	.	.	.
.	.	4G	.	.	.	.	.
4FF	ut	4A	.	1ff	ut	1a	ut
4GG	.	4B-X	.	.	.	.	.
4AA	.	[2c	.	.	.	.	.
4BB-X	.	.	.	.	.	.	.
=32	=32	=32	=32	=32	=32	=32	=32
2C	.	2c]	.	2ee	Car-	2g	Car-
2D	Car-	2A	Car-	2.dd	-me-	1f	.
1BB-X	-me-	1B-X	-me-	.	.	.	.
.	.	.	.	4cc	.	.	.
.	.	.	.	2dd	.	[2g	-me-
=33	=33	=33	=33	=33	=33	=33	=33
1.C	-lus,	1G	-lus,	2.cc	.	4g]	.
.	.	.	.	.	.	4f	.
.	.	.	.	.	.	4e	.
.	.	.	.	4b-X	.	4d	.
.	.	1r	.	2g	.	2e	.
2BB-X	.	.	.	[2dd	.	[2f	.
=34	=34	=34	=34	=34	=34	=34	=34
1C	col-	1r	.	4dd]	.	4f]	.
.	.	.	.	4cc	.	4e	.
.	.	.	.	1cc	.	2c	.
1GG	-lum	1G	col-	.	.	1d	.
.	.	.	.	2b-X	.	.	.
=35	=35	=35	=35	=35	=35	=35	=35
2.AA	tu-	1.E	-lum	1a	.	1c	-lus,
4BB-X	.	.	.	.	.	.	.
2C	.	.	.	2g	.	1r	.
[2D	.	[2F	tu-	2f	-lus,	.	.
=36	=36	=36	=36	=36	=36	=36	=36
4D]	.	4F]	.	1.a	col-	0r	.
4C	.	4E	.	.	.	.	.
1C	.	2C	.	.	.	.	.
.	.	1D	-um	.	.	.	.
2BBni	.	.	.	4g	.	.	.
.	.	.	.	4f	.	.	.
=37	=37	=37	=37	=37	=37	=37	=37
1C	-um	1.C	si-	1e	.	1c	col-
1r	.	.	.	2e	-lum	2c	-lum
.	.	2BB-X	.	[2f	tu-	[2d	tu-
=38	=38	=38	=38	=38	=38	=38	=38
2r	.	1C	-cut	4f]	.	4d]	.
.	.	.	.	4e	.	4c	.
2C	si-	.	.	2c	.	1c	.
1GG	-cut	1G	tur-	1d	.	.	.
.	.	.	.	.	.	2B	.
=39	=39	=39	=39	=39	=39	=39	=39
1AA	tur-	2E	-ris	2c	-um,	1c	-um
.	.	1A	e-	1cc	col-	.	.
2AA	-ris	.	.	.	.	1r	.
[2BB-X	e-	[2G	-bur-	[2dd	-lum	.	.
=40	=40	=40	=40	=40	=40	=40	=40
4BB-]	.	4G]	.	4dd]	.	1r	.
4AA	.	4F	.	4cc	.	.	.
4GG	.	1F	.	4b-X	.	.	.
4FF	.	.	.	4a	.	.	.
2GG	-bur-	.	.	2b-i	tu-	2r	.
2GG	-ne-	2E	-ne-	2g	-um	2g	si-
=41	=41	=41	=41	=41	=41	=41	=41
1FF	-a,	1F	-a,	1.cc	si-	1a	-cut
1r	.	1r	.	.	.	1g	tur-
.	.	.	.	2b-X	-cut	.	.
=42	=42	=42	=42	=42	=42	=42	=42
0r	.	0r	.	1cc	tur-	2e	-ris
.	.	.	.	.	.	1a	e-
.	.	.	.	2a	-ris	.	.
.	.	.	.	[2b-X	e-	[2g	-bur-
=43	=43	=43	=43	=43	=43	=43	=43
1r	.	0r	.	4b-]	.	4g]	.
.	.	.	.	4a	.	4f	.
.	.	.	.	2f	.	1f	.
1C	si-	.	.	2g	.	.	.
.	.	.	.	[2a	-bur-	2e	-ne-
=44	=44	=44	=44	=44	=44	=44	=44
1FF	-cut	0r	.	4a]	.	1f	-a,
.	.	.	.	4g	.	.	.
.	.	.	.	4f	.	.	.
.	.	.	.	4e	.	.	.
1GG	tur-	.	.	1d	-ne-	1r	.
=45	=45	=45	=45	=45	=45	=45	=45
2.AA	-ris	1c	si-	1c	-a,	0r	.
4C	e-	.	.	.	.	.	.
2BB-X	-bur-	1F	-cut	2d	e-	.	.
2AA	.	.	.	[2f	-bur-	.	.
=46	=46	=46	=46	=46	=46	=46	=46
1GG	-ne-	1G	tur-	2f]	.	1r	.
.	.	.	.	2e	-ne-	.	.
1FF	-a,	1A	-ris	2.f	-a,	1cc	si-
.	.	.	.	8eL	.	.	.
.	.	.	.	8dJ	.	.	.
=47	=47	=47	=47	=47	=47	=47	=47
1r	.	2.B-X	e-	1dd	.	1f	-cut
.	.	4A	.	.	.	.	.
[1C	si-	4G	.	2r	.	1g	tur-
.	.	4F	.	.	.	.	.
.	.	[2G	-bur-	2cc	si-	.	.
=48	=48	=48	=48	=48	=48	=48	=48
2C]	.	4G]	.	2cc	-cut	1a	-ris
.	.	4F	.	.	.	.	.
2AA	.	1F	.	2cc	tur-	.	.
1GG	-cut	.	.	2b-X	-ris	1b-X	e-
.	.	2E	-ne-	2g	e-	.	.
=49	=49	=49	=49	=49	=49	=49	=49
1D	tur-	1F	-a,	2a	-bur-	2a	-bur-
.	.	.	.	2b-X	-ne-	4g	.
.	.	.	.	.	.	4f	.
1C	-ris	2r	.	1cc	-a,	4e	.
.	.	.	.	.	.	4d	.
.	.	2G	si-	.	.	[2g	.
=50	=50	=50	=50	=50	=50	=50	=50
1BB-X	.	2G	-cut	1dd	.	4g]	.
.	.	.	.	.	.	4f	.
.	.	2D	tur-	.	.	2.f	.
[1C	e-	1G	-ris	1cc	e-	.	.
.	.	.	.	.	.	8eL	.
.	.	.	.	.	.	8dJ	.
.	.	.	.	.	.	2e	-ne-
=51	=51	=51	=51	=51	=51	=51	=51
2C]	.	1A	e-	1.cc	-bur-	[0fl;	-a.
2AA	.	.	.	.	.	.	.
1AA	-bur-	2A	-bur-	.	.	.	.
.	.	2F	-ne-	2a	.	.	.
=52	=52	=52	=52	=52	=52	=52	=52
1.BB-X	.	[0Fl;	-a.	1.dd	.	0f_	.
4AA	-ne-	.	.	4cc	-ne-	.	.
4GG	.	.	.	4b-X	.	.	.
=	=	=	=	=	=	=	=
00FF	-a.	00F]	.	00cc	-a.	00f]	.
=||	=||	=||	=||	=||	=||	=||	=||
*M2/1	*	*M2/1	*	*M2/1	*	*M2/1	*
*met(C|)	*	*met(C|)	*	*met(C|)	*	*met(C|)	*
!!section: Secunda pars: Veni, dilecte mi
!!!OMD: Secunda pars: Veni, dilecte mi
0r	.	0r	.	2.f	Ve-	1r	.
.	.	.	.	4g	.	.	.
.	.	.	.	4a	.	2.c	Ve-
.	.	.	.	4b-X	.	.	.
.	.	.	.	[2cc	.	.	.
.	.	.	.	.	.	4d	.
=53	=53	=53	=53	=53	=53	=53	=53
0r	.	0r	.	4cc]	.	4e	.
.	.	.	.	4b-X	.	4f	.
.	.	.	.	1b-i	.	2.g	.
.	.	.	.	.	.	4f	.
.	.	.	.	2a	.	[2f	.
=54	=54	=54	=54	=54	=54	=54	=54
0r	.	0r	.	1g	.	2f]	.
.	.	.	.	.	.	2e	.
.	.	.	.	1f	-ni,	1d	.
=55	=55	=55	=55	=55	=55	=55	=55
0r	.	0r	.	1a	di-	1c	-ni,
.	.	.	.	1b-X	-le-	1r	.
=56	=56	=56	=56	=56	=56	=56	=56
0r	.	0r	.	1cc	-cte	1e	di-
.	.	.	.	2a	mi,	1f	-le-
.	.	.	.	2dd	e-	.	.
=57	=57	=57	=57	=57	=57	=57	=57
0r	.	0r	.	2cc	-gre-	1g	-cte
.	.	.	.	2b-X	-di-	.	.
.	.	.	.	[1cc	-a-	2e	mi,
.	.	.	.	.	.	2a	e-
=58	=58	=58	=58	=58	=58	=58	=58
0r	.	0r	.	2cc]	.	2g	-gre-
.	.	.	.	2dd	.	2f	-di-
.	.	.	.	2b-X	-mur	1g	-a-
.	.	.	.	[2cc	in	.	.
=59	=59	=59	=59	=59	=59	=59	=59
0r	.	1F	vi-	4cc]	.	1a	-mur;
.	.	.	.	4b-X	.	.	.
.	.	.	.	2a	.	.	.
.	.	1C	-de-	1g	a-	1r	.
=60	=60	=60	=60	=60	=60	=60	=60
1BB-X	vi-	2.D	-a-	1f	-grum;	0r	.
.	.	4E	.	.	.	.	.
1FF	-de-	4F	.	1r	.	.	.
.	.	4G	.	.	.	.	.
.	.	2A	.	.	.	.	.
=61	=61	=61	=61	=61	=61	=61	=61
2.GG	-a-	2.G	.	0r	.	0r	.
4AA	.	4F	.	.	.	.	.
4BB-X	.	4D	.	.	.	.	.
4C	.	4E	.	.	.	.	.
2D	.	4F	.	.	.	.	.
.	.	4G	.	.	.	.	.
=62	=62	=62	=62	=62	=62	=62	=62
2.C	.	2A	.	0r	.	0r	.
.	.	2.G	.	.	.	.	.
4BB-X	.	.	.	.	.	.	.
4GG	.	.	.	.	.	.	.
4AA	.	4F	.	.	.	.	.
4BB-i	.	[2F	.	.	.	.	.
4C	.	.	.	.	.	.	.
=63	=63	=63	=63	=63	=63	=63	=63
4D	.	4F]	.	2r	.	2r	.
4BB-X	.	4D	.	.	.	.	.
2C	.	2E	.	1cc	si	2g	si
1FF	-mus	1F	-mus	.	.	2a	flo-
.	.	.	.	2dd	.	2f	-res
=64	=64	=64	=64	=64	=64	=64	=64
0r	.	0r	.	2b-X	flo-	2g	fru-
.	.	.	.	2cc	-res	2a	.
.	.	.	.	2dd	fru-	2f	.
.	.	.	.	2b-i	-ctus	2g	-ctus
=65	=65	=65	=65	=65	=65	=65	=65
0r	.	0r	.	2cc	par-	2e	par-
.	.	.	.	2.dd	-tu-	2.f	-tu-
.	.	.	.	4cc	.	4e	.
.	.	.	.	4b-X	.	4d	.
.	.	.	.	4a	.	4c	.
=66	=66	=66	=66	=66	=66	=66	=66
0r	.	0r	.	2g	.	2B-X	.
.	.	.	.	2e	.	1c	.
.	.	.	.	1d	-ri-	.	.
.	.	.	.	.	.	2B-i	-ri-
=67	=67	=67	=67	=67	=67	=67	=67
0r	.	0r	.	1.c	-unt,	1c	-unt,
.	.	.	.	.	.	1g	si
.	.	.	.	2g	si	.	.
=68	=68	=68	=68	=68	=68	=68	=68
1r	.	1r	.	2a	flo-	2e	flo-
.	.	.	.	2f	-ru-	2f	-ru-
1GG	si	1G	si	1b-X	-e-	1d	-e-
=69	=69	=69	=69	=69	=69	=69	=69
2AA	flo-	2E	flo-	1a	-runt	1c	-runt
2FF	-ru-	2F	-ru-	.	.	.	.
1BB-X	-e-	1D	-e-	1r	.	1r	.
=70	=70	=70	=70	=70	=70	=70	=70
2AA	-runt	2C	-runt	0r	.	0r	.
1D	ma-	1F	ma-	.	.	.	.
2C	-la	2E	-la	.	.	.	.
=71	=71	=71	=71	=71	=71	=71	=71
2D	pu-	2F	pu-	1r	.	1r	.
2BB-X	-ni-	2G	.	.	.	.	.
[1AA	-ca,	2A	.	[1cc	ma-	[1e	ma-
.	.	2A	-ni-	.	.	.	.
=72	=72	=72	=72	=72	=72	=72	=72
1AA]	.	1A	-ca,	2cc]	.	2e]	.
.	.	.	.	2a	-la	2c	-la
1r	.	1r	.	2b-X	pu-	2d	pu-
.	.	.	.	2g	.	2e	.
=73	=73	=73	=73	=73	=73	=73	=73
1r	.	2r	.	2f	.	2f	.
.	.	1c	ma-	4e	.	1g	.
.	.	.	.	4d	.	.	.
2C	ma-	.	.	2c	.	.	.
2D	-la	2A	-la	2f	-ni-	2f	.
=74	=74	=74	=74	=74	=74	=74	=74
2BB-X	pu-	2B-X	pu-	1g	-ca;	2d	.
2C	-ni-	2G	-ni-	.	.	2e	-ni-
1FF	-ca;	[1F	-ca;	1r	.	[1f	-ca;
=75	=75	=75	=75	=75	=75	=75	=75
1.F	i-	1F]	.	1.a	i-	1f]	.
.	.	1r	.	.	.	1r	.
4E	.	.	.	4g	.	.	.
4D	.	.	.	4f	.	.	.
=76	=76	=76	=76	=76	=76	=76	=76
2E	.	0r	.	1g	-bi	0r	.
2C	-bi	.	.	.	.	.	.
2D	da-	.	.	4f	da-	.	.
.	.	.	.	4g	.	.	.
[2F	.	.	.	4a	.	.	.
.	.	.	.	4b-X	.	.	.
=77	=77	=77	=77	=77	=77	=77	=77
4F]	.	0r	.	2cc	.	0r	.
4E	.	.	.	.	.	.	.
4D	.	.	.	2.dd	-bo	.	.
4C	.	.	.	.	.	.	.
2BB-X	.	.	.	.	.	.	.
.	.	.	.	4cc	.	.	.
2C	-bo	.	.	[2cc	ti-	.	.
=78	=78	=78	=78	=78	=78	=78	=78
1D	ti-	1F	i-	2cc]	.	0r	.
.	.	.	.	2b	.	.	.
1C	-bi,	[1E	-bi	1cc	-bi	.	.
=79	=79	=79	=79	=79	=79	=79	=79
0r	.	2E]	.	1r	.	1r	.
.	.	4D	.	.	.	.	.
.	.	4C	.	.	.	.	.
.	.	1D	.	1r	.	1f	i-
=80	=80	=80	=80	=80	=80	=80	=80
1.C	i-	2C	da-	0r	.	1.e	-bi
.	.	1c	.	.	.	.	.
2D	.	2A	-bo	.	.	4d	.
.	.	.	.	.	.	4c	.
=81	=81	=81	=81	=81	=81	=81	=81
2.BB-X	-bi	1B-X	ti-	1.f	u-	1d	.
4AA	.	.	.	.	.	.	.
1FF	.	1A	-bi	.	.	2c	da-
.	.	.	.	4e	.	[2f	.
.	.	.	.	4d	.	.	.
=82	=82	=82	=82	=82	=82	=82	=82
4FF	da-	1.A	u-	2c	.	2f]	.
4GG	.	.	.	.	.	.	.
4AA	.	.	.	1cc	.	4e	.
4BB-X	.	.	.	.	.	4d	.
2C	.	.	.	.	.	4e	.
.	.	.	.	.	.	4d	.
2GG	.	2G	.	[2b-X	-be-	[2d	-bo
=83	=83	=83	=83	=83	=83	=83	=83
2BB-X	.	2F	-be-	2b-]	.	4d]	.
.	.	.	.	.	.	4c	.
2C	.	2E	-ra	2a	-ra	2.c	ti-
1GG	-bo	1D	me-	2.g	me-	.	.
.	.	.	.	.	.	8BL	.
.	.	.	.	.	.	8AJ	.
.	.	.	.	.	.	4c	.
.	.	.	.	4f	.	4B	.
=84	=84	=84	=84	=84	=84	=84	=84
2AA	ti-	1C	-a,	2e	.	0c	-bi
2FF	.	.	.	2f	-a,	.	.
1C	-bi	1r	.	2g	u-	.	.
.	.	.	.	[2a	-be-	.	.
=85	=85	=85	=85	=85	=85	=85	=85
1.D	u-	0r	.	2a]	.	0r	.
.	.	.	.	2f	-ra	.	.
.	.	.	.	2.b-X	me-	.	.
2C	.	.	.	.	.	.	.
.	.	.	.	4a	.	.	.
=86	=86	=86	=86	=86	=86	=86	=86
2BB-X	-be-	0r	.	2g	.	0r	.
2AA	-ra	.	.	1f	.	.	.
1GG	me-	.	.	.	.	.	.
.	.	.	.	2e	.	.	.
=87	=87	=87	=87	=87	=87	=87	=87
0FF	-a,	1.c	u-	0f	-a,	1r	.
.	.	.	.	.	.	[1a	u-
.	.	2A	.	.	.	.	.
=88	=88	=88	=88	=88	=88	=88	=88
2r	.	1.d	-be-	2r	.	2a]	.
1BB-X	u-	.	.	2ff	u-	2f	.
.	.	.	.	2dd	.	2.b-X	-be-
2C	.	2c	-ra	2ee	-be-	.	.
.	.	.	.	.	.	4a	.
=89	=89	=89	=89	=89	=89	=89	=89
2GG	-be-	2B-X	me-	2dd	-ra	2g	-ra
2AA	.	2A	.	2cc	.	1f	.
2BB-X	.	1G	.	2dd	me-	.	.
2C	-ra	.	.	2cc	-a.	2e	me-
=90	=90	=90	=90	=90	=90	=90	=90
2.D	me-	[0F	-a.	1a	A-	1f	-a.
4C	.	.	.	.	.	.	.
2BB-X	.	.	.	[1dd	.	1b-X	A-
4AA	.	.	.	.	.	.	.
4GG	.	.	.	.	.	.	.
=91	=91	=91	=91	=91	=91	=91	=91
0FF	-a.	0F]	.	2dd]	.	1.a	.
.	.	.	.	2cc	.	.	.
.	.	.	.	[1cc;	-men,	.	.
.	.	.	.	.	.	4g	.
.	.	.	.	.	.	4f	.
=92	=92	=92	=92	=92	=92	=92	=92
0C;	A-	0G;	A-	0cc_	.	0e;	.
=93	=93	=93	=93	=93	=93	=93	=93
[0FFl	-men	[0Fl	-men	1cc]	.	[0fl	-men.
.	.	.	.	[1a	a-	.	.
=94	=94	=94	=94	=94	=94	=94	=94
0FF_	.	0F_	.	1a]	.	0f_	.
.	.	.	.	[1ccl	-men.	.	.
=95	=95	=95	=95	=95	=95	=95	=95
00FF]	.	00F]	.	00cc]	.	00f]	.
==	==	==	==	==	==	==	==
*-	*-	*-	*-	*-	*-	*-	*-
!!!system-decoration: [*]
!!!RDF**kern: i = editorial accidental
!!!RDF**kern: l = terminal long
!!!ENC: Benjamin Ory
!!!END: 2022/2/24
!!!EED: Benjamin Ory
!!!EEV: 2022/02/24
!!!YEC: Copyright 2022 Benjamin Ory, All Rights Reserved
!!!ONB: Translated from MusicXML on 2022/02/24
